X: 11630
T: Eilean Fhianain
R: waltz
M: 3/4
K: Amixolydian
e2|:c4A2|G4A2|B(AA4)|A4B2|c4d2|e4f2|f(ee4)|d4e2|
f4e2|g4f2|e4e2|d4f2|e4e2|G4A2|
B4e2|d(dd4)|G4A2|B(AA4)|1 A4e2:|2 A5||
|:e4e2|d4e2|G4A2|B4d2|e4e2|d4e2|f(ee4)|e4f2|
g4e2|a4g2|f(dd4)|e4f2|e4e2|G4A2|
B4e2|d(dd4)|G4A2|B(AA4)|A5:|

